packages/core/src/svgs/tokens/mono/AMO.svg

<svg width="24" height="24" viewBox="0 0 24 24" fill="none" xmlns="http://www.w3.org/2000/svg">
<path d="M10.5735 3.19215V10.5715H3.50357C2.28215 10.5715 2 10.17 2 9.46433C2.01857 7.74285 2 4.07857 2 3.19215C2 2.355 2.60572 2 3.14143 2H9.29283C10.3178 2 10.5735 2.76215 10.5735 3.19215ZM10.5735 20.8078V13.4285H3.50357C2.28215 13.4285 2 13.83 2 14.5357C2.01857 16.2572 2 19.9215 2 20.8078C2 21.645 2.60572 22 3.14143 22H9.29283C10.3178 22 10.5735 21.2378 10.5735 20.8078ZM13.4265 3.19215V10.5707H20.4965C21.7178 10.5707 22 10.1693 22 9.4635C21.9815 7.74215 22 4.07857 22 3.19215C22 2.355 21.3943 2 20.8585 2H14.7072C13.6828 2 13.4265 2.76215 13.4265 3.19215ZM13.4285 20.8078V13.4285H20.4972C21.7185 13.4285 22 13.83 22 14.5357C21.9815 16.2572 22 19.9215 22 20.8078C22 21.645 21.395 22 20.8593 22H14.7093C13.6835 22 13.4285 21.2378 13.4285 20.8078Z" fill="white"/>
</svg>

<svg xmlns="http://www.w3.org/2000/svg" width="24" height="24" fill="none" viewBox="0 0 24 24">
    <path fill="#fff" d="M10.574 3.192v7.38h-7.07C2.282 10.572 2 10.17 2 9.464c.019-1.721 0-5.385 0-6.272C2 2.355 2.606 2 3.141 2h6.152c1.025 0 1.28.762 1.28 1.192m0 17.616v-7.38h-7.07C2.282 13.429 2 13.83 2 14.537c.019 1.721 0 5.386 0 6.272C2 21.645 2.606 22 3.141 22h6.152c1.025 0 1.28-.762 1.28-1.192m2.853-17.616v7.379h7.07c1.22 0 1.503-.402 1.503-1.107-.018-1.722 0-5.385 0-6.272C22 2.355 21.394 2 20.858 2h-6.15c-1.025 0-1.281.762-1.281 1.192m.002 17.616v-7.38h7.068c1.221 0 1.503.402 1.503 1.108-.018 1.721 0 5.386 0 6.272 0 .837-.605 1.192-1.14 1.192h-6.15c-1.027 0-1.282-.762-1.282-1.192"/>
</svg>
